X: 119002
T: BRAES OF TULIMET
Q: "Highland Schottische."
R: Schottische.
%R: shottish
B: James Kerr "Merry Melodies" v.1 p.19 s.0 #2
Z: 2017 John Chambers <jc:trillian.mit.edu>
M: C
L: 1/8
K: Em
|:\
(vE<B) uB>vA uB>vA (B<d) | (vF<D) uA>uD vB>vDuA>uF |\
(E<B) B>A B>A (B<e) | vd>uB A<F E2 E2 :|\
ve>uB e<g e>B e<g | d>A d<f d>A d<f |
e>B e<g e>B e<g | d>B A<F E2 E2 |\
ve>uB e<g vB>veug>ue | d>A d<f A>df>d |\
e>B B>^c d>ef>e | d>B (A<F) E<E E2 |]

%%sep 1 1 500
%%sep 1 1 500

